X: 163
T: Green Dolphin Street
C: B.Kaper
M: 4/4
L: 1/4
Q: 1/4=200
%%staves (chords melody)
K: Eb
P: A
V: chords
"Eb6"x2 x2 | x2 x2 | "Ebm7"x2 x2 | x2 x2 |
"Fmaj7/Eb"x2 x2 | "Emaj7/Eb"x2 x2 | "Ebmaj7"x2 x2 | "C7"x2 x2 ||
V: melody
e2e2- | e2(3dBG | _d4- | d4 |
c2c2- | c2 (3=B^G=E |B4- | B3z ||
P: B
V: chords
"Fm7"x2 x2 | "Bb7"x2 x2 | "Ebmaj7"x2 x2 | x2 x2 |
"Abm7"x2 x2 | "Db7"x2 x2 | "Gbmaj7"x2 x2 | x2 "Bb7"x2 ||
V: melody
B2FG | AB_c_d | B2B2- | B2zB |
_d2AB | _c_d=d=e | _d2d2- | dz=d2 ||
P: A
V: chords
"Eb6"x2 x2 | x2 x2 | "Ebm7"x2 x2 | x2 x2 |
"Fmaj7/Eb"x2 x2 | "Emaj7/Eb"x2 x2 | "Ebmaj7"x2 x2 | "C7"x2 x2 ||
V: melody
e2e2- | e2(3dBG | _d4- | d4 |
c2c2- | c2 (3=B^G=E |B4- | B3z ||
P: B
V: chords
"Fm7"x2 "-/Eb"x2 | "Dm7b5"x2 "G7"x2 | "Cm7"x2 "-/Bb"x2 | "Am7b5"x2 "D7"x2 |
"Gm7"x2 "C7"x2 | "Fm7"x2 "Bb7"x2 | "Ebmaj7"x2 x2 | "T.A."x2 x2 |]
V: melody
B2FG | AB=Bg | f2e2 | EF^Fd |
c2B2- | BBBB | B4- | B3z |]
